resources/dark/mainScratchOrg.svg

<?xml version="1.0" encoding="iso-8859-1"?>
<!-- Uploaded to: SVG Repo, www.svgrepo.com, Generator: SVG Repo Mixer Tools -->
<!DOCTYPE svg PUBLIC "-//W3C//DTD SVG 1.1//EN" "http://www.w3.org/Graphics/SVG/1.1/DTD/svg11.dtd">
<svg fill="#000000" version="1.1" id="Capa_1" xmlns="http://www.w3.org/2000/svg" xmlns:xlink="http://www.w3.org/1999/xlink" 
	 width="800px" height="800px" viewBox="0 0 46.028 46.028"
	 xml:space="preserve">
<g>
	<g>
		<path d="M29.21,42.117c-0.336-0.182-0.956-0.502-1.227-0.698c-3.708-2.211-3.75-6.04-3.75-6.04
			c0.042-0.666-0.438-1.268-1.109-1.356c-2.706-0.359-1.924,6.733,2.537,10.412c0.388,0.364,1.041,0.825,1.509,1.166
			C29.447,47.276,31.934,43.588,29.21,42.117z"/>
		<path d="M41.823,20.208c-1.339-0.256-3.021-0.523-4.841-0.682c1.988-3.857,3.322-7.953,4.072-10.616
			c0.372-1.326-0.85-2.551-2.178-2.178c-2.511,0.707-6.296,1.935-9.955,3.739c-1.307-3.817-3.092-7.313-4.354-9.567
			c-0.678-1.209-2.434-1.201-3.108,0c-1.263,2.254-3.047,5.75-4.354,9.567c-3.658-1.805-7.444-3.032-9.955-3.739
			C5.829,6.36,4.601,7.579,4.975,8.91c0.749,2.663,2.083,6.759,4.071,10.616c-5.16,0.449-5.858,0.828-6.193,1.885
			c-0.194,0.62-0.033,1.295,0.42,1.761c1.73,1.781,4.381,4.252,7.324,6.079c-2.682,1.793-3.503,2.49-3.233,3.708
			c0.143,0.648,0.638,1.161,1.281,1.328c7.133,1.853,11.555,0.675,13.967-1.205c-0.605-3.976,0.829-3.518-8.603-0.92
			c-0.296,0.083-0.458-0.343-0.179-0.478l5.992-2.905c0.638-0.311,0.593-1.236-0.076-1.482l-7.041-2.561
			c-0.3-0.11-0.164-0.564,0.148-0.49l6.446,1.562c0.752,0.184,1.304-0.703,0.809-1.297l-7.489-8.988
			c-0.086-0.104-0.077-0.257,0.022-0.35c0.099-0.093,0.252-0.092,0.351,0.001l7.504,7.118c0.512,0.487,1.365,0.121,1.359-0.592
			c-0.072-6.45,0.463-12.409,0.795-13.759c0.095-0.378,0.634-0.376,0.728,0c0.474,1.904,0.811,9.013,0.796,11.129
			c0.022,2.354-0.234,3.065,0.482,3.377c0.297,0.129,0.641,0.068,0.875-0.155l7.505-7.118c0.234-0.22,0.576,0.106,0.373,0.349
			l-7.489,8.988c-0.49,0.59,0.055,1.481,0.81,1.297l6.447-1.562c0.312-0.076,0.447,0.38,0.146,0.49
			c-6.771,2.463-7.522,2.402-7.57,3.276c-0.016,0.322,0.162,0.625,0.453,0.767l5.992,2.905c0.278,0.135,0.119,0.562-0.18,0.478
			c-9.494-2.614-8.003-2.992-8.603,0.92c2.407,1.873,6.823,3.062,13.968,1.205c0.643-0.167,1.138-0.68,1.28-1.328
			c0.286-1.289-0.696-2.013-3.231-3.708c2.942-1.826,5.593-4.297,7.324-6.079C43.737,22.161,43.197,20.473,41.823,20.208z"/>
	</g>
</g>
</svg>

<?xml version="1.0" encoding="UTF-8" standalone="no"?>
<!-- Created with Pixodesk SVG (https://pixodesk.com) -->
<svg xmlns="http://www.w3.org/2000/svg" viewBox="0 0 46.028 46.028" text-rendering="geometricPrecision" shape-rendering="geometricPrecision" fill="#000000">
  <g>
    <g fill="#ffffff">
      <path d="M29.21,42.117C28.874,41.935,28.254,41.615,27.983,41.419C24.275,39.208,24.233,35.379,24.233,35.379C24.275,34.713,23.795,34.111,23.124,34.023C20.418,33.664,21.2,40.756,25.661,44.435C26.049,44.799,26.702,45.26,27.17,45.601C29.447,47.276,31.934,43.588,29.21,42.117z"/>
      <path d="M41.823,20.208C40.484,19.952,38.802,19.685,36.982,19.526C38.97,15.669,40.304,11.573,41.054,8.91C41.426,7.584,40.204,6.359,38.876,6.732C36.365,7.439,32.58,8.667,28.921,10.471C27.614,6.654,25.829,3.158,24.567,0.904C23.889,-0.305,22.133,-0.297,21.459,0.904C20.196,3.158,18.412,6.654,17.105,10.471C13.447,8.666,9.661,7.439,7.15,6.732C5.829,6.36,4.601,7.579,4.975,8.91C5.724,11.573,7.058,15.669,9.046,19.526C3.886,19.975,3.188,20.354,2.853,21.411C2.659,22.031,2.82,22.706,3.273,23.172C5.003,24.953,7.654,27.424,10.597,29.251C7.915,31.044,7.094,31.741,7.364,32.959C7.507,33.607,8.002,34.12,8.645,34.287C15.778,36.14,20.2,34.962,22.612,33.082C22.007,29.106,23.441,29.564,14.009,32.162C13.713,32.245,13.551,31.819,13.83,31.684L19.822,28.779C20.46,28.468,20.415,27.543,19.746,27.297L12.705,24.736C12.405,24.626,12.541,24.172,12.853,24.246L19.299,25.808C20.051,25.992,20.603,25.105,20.108,24.511L12.619,15.523C12.533,15.419,12.542,15.266,12.641,15.173C12.74,15.08,12.893,15.081,12.992,15.174L20.496,22.292C21.008,22.779,21.861,22.413,21.855,21.7C21.783,15.25,22.318,9.291,22.65,7.941C22.745,7.563,23.284,7.565,23.378,7.941C23.852,9.845,24.189,16.954,24.174,19.07C24.196,21.424,23.94,22.135,24.656,22.447C24.953,22.576,25.297,22.515,25.531,22.292L33.036,15.174C33.27,14.954,33.612,15.28,33.409,15.523L25.92,24.511C25.43,25.101,25.975,25.992,26.73,25.808L33.177,24.246C33.489,24.17,33.624,24.626,33.323,24.736C26.552,27.199,25.801,27.138,25.753,28.012C25.737,28.334,25.915,28.637,26.206,28.779L32.198,31.684C32.476,31.819,32.317,32.246,32.018,32.162C22.524,29.548,24.015,29.17,23.415,33.082C25.822,34.955,30.238,36.144,37.383,34.287C38.026,34.12,38.521,33.607,38.663,32.959C38.949,31.67,37.967,30.946,35.432,29.251C38.374,27.425,41.025,24.954,42.756,23.172C43.737,22.161,43.197,20.473,41.823,20.208z"/>
    </g>
  </g>
</svg>
